X:1
T:Silent Night
T:Silent Night
T:by Franz Gruber
T:arranged by Betty Colley
C:arranged by Betty Colley
%%score { ( 1 4 ) | ( 2 3 ) }
L:1/8
M:3/4
K:Bb
V:1 treble nm="Piano" snm="Pno."
V:4 treble 
V:2 bass 
V:3 bass 
V:1
!mp! ([CDF]6 | [B,CE]6) | ([CDF]6 |!>(! [B,CE]6)!>)! | [CD]6 | [A,B,]6 | [CD]6 | [A,B,]6 | [EG]6 | %9
 [EG]6 | [EF]6 | [CD]6 | [DF]6 | [DE]6 | C6 | B,2 !tenuto!_A,4 | [DF]6 | [DE]6 | C6 | %19
"_cresc." B,6 | [EG]6 | [_GA]6 | z2 !tenuto!D2 !tenuto!E2 | %23
!f! z2!>(! !tenuto![FA]2 !tenuto!!fermata![_GB]2!>)! | (B2 F2 D2 |!>(! z2 [G,B,]2 A,2!>)! | %26
!p! !tenuto!B,6- | B,6- | B,6- |!>(! !fermata!B,6)!>)! |!p! [CD]4 C2 | !tenuto!d6- | z2 D2 A2 | %33
 !arpeggio!f6 | z6 |] %35
V:2
!ped! z2 A,2 F,2 | z2 G,2!<(! F,2!<)! |!ped! z2!ped-up! A,2 F,2 | z2 G,2 F,2 | %4
!ped! z2!ped-up! A,2 F,2 | z2 G,2 F,2 |!ped! z2!ped-up! A,2 F,2 | z2 G,2 F,2 | %8
!ped! z2!ped-up! A,2 F,2 | z2 G,2 F,2 |!ped! z2!ped-up! G,4 |!ped! z2!ped-up! A,2 F,2 | %12
!ped! E,,2!ped-up! B,,4 |!ped! C,,2!ped-up! G,,4 |!ped! D,,2!ped-up! A,,4 | %15
!ped! [G,,D,]2!ped-up!!ped! !tenuto![F,,C,]4!ped-up! |!ped! E,,2!ped-up! B,,4 | %17
!ped! C,,2!ped-up! G,,4 |!ped! D,,2!ped-up! A,,4 |!ped! F,6!ped-up! |!ped! [C,G,B,]6!ped-up! | %21
!ped! [F,,C,E,]6!ped-up! | z2!ped-up!!ped! !tenuto![B,,F,A,]2!ped! !tenuto![C,G,B,]2!ped-up! | %23
 z2!ped-up!!ped! !tenuto![D,A,C]2!ped! !tenuto!!fermata![E,B,_D]2!ped-up! | %24
!mp!!ped! z2!ped-up! D,4 |!ped! z2!ped-up! E,2!ped! !fermata!E,2!ped-up! | %26
 z2!pp!!ped-up!!ped! (A,2 F,2 | B,,2 G,2 E,2 | B,,2 A,2 F,2 |!ped! B,,2!ped-up! G,2 !fermata!E,2) | %30
!ped! [B,,F,A,]4!ped-up!!ped! [_A,,E,G,]2!ped-up! | z2!ped-up!!ped! B,,2- F,2- | [F,A,]6 | %33
 !arpeggio!F6 |!pp! !arpeggio![D,F,A,C]6 |] %35
V:3
 B,,6- | B,,6 | B,,6- | B,,6 | B,,6- | B,,6 | B,,6- | B,,6 | B,,6- | B,,6 | B,,6- | B,,6 | x6 | %13
 x6 | x6 | x6 | x6 | x6 | x6 | G,,2 D,2 F,2 | x6 | x6 | x6 | x6 | F,,6 | F,,4 F,,2 | x6 | x6 | x6 | %29
 x6 | x6 | x6 | B,,6 | !arpeggio!B,6 | [B,,,F,,]6 |] %35
V:4
 x6 | x6 | x6 | x6 | (F3 G F2 | D6) | (F3 G F2 | D6) | (c4 c2 | A6) | (B4 B2 | F6) | (G4 G2 | %13
 B3 A G2 | F3 G F2 | D6) | (G4 G2 | B3 A G2 | F3 G F2 | D6) | (c4 c2 | e2 c2 A2 | !tenuto!B6 | %23
 !>!!fermata!d6) | x6 | F3 E !fermata!C2 | B,6- | B,6- | B,6- | B,6 | F3 G F2 | d6 | d6 | %33
 !arpeggio![Ac]6 | x6 |] %35

